symbols/web/20mp/materialsymbolsrounded/20mp_wght600_40px.svg

<svg xmlns="http://www.w3.org/2000/svg" height="40" width="40"><path d="M24.042 16.917v-5.584h3v5.584Zm-.334 2.208h3.875q.625 0 1.146-.521.521-.521.521-1.146v-6.666q0-.625-.521-1.146-.521-.521-1.146-.521h-3.875q-.625 0-1.146.521-.52.521-.52 1.146v6.666q0 .625.52 1.146.521.521 1.146.521Zm-11.5 0h4.5q.459 0 .771-.313.313-.312.313-.812 0-.458-.313-.771-.312-.312-.812-.312h-3.875v-2.042h3.333q.625 0 1.146-.521.521-.521.521-1.146v-2.416q0-.625-.521-1.146-.521-.521-1.146-.521h-4.5q-.458 0-.771.313-.312.312-.312.812 0 .458.312.771.313.312.813.312h3.875v2.084h-3.334q-.625 0-1.146.521-.52.52-.52 1.145v2.375q0 .709.479 1.188t1.187.479ZM8 35.667q-1.5 0-2.583-1.084Q4.333 33.5 4.333 32V8q0-1.5 1.084-2.583Q6.5 4.333 8 4.333h24q1.5 0 2.583 1.084Q35.667 6.5 35.667 8v24q0 1.5-1.084 2.583Q33.5 35.667 32 35.667ZM8 32h24V8H8v24Zm2.917-1.125q.5 0 .812-.313.313-.312.313-.812v-6.417h2v4.042q0 .417.312.729.313.313.813.313.5 0 .812-.313.313-.312.313-.771v-4H18.5v6.459q0 .458.312.77.313.313.813.313.458 0 .771-.313.312-.312.312-.812v-6.958q0-.625-.52-1.146-.521-.521-1.146-.521h-7.584q-.625 0-1.146.521-.52.521-.52 1.146v7q0 .458.312.77.313.313.813.313Zm13.125 0q.5 0 .812-.313.313-.312.313-.812v-1.333H28.5q.625 0 1.146-.521.521-.521.521-1.146v-3.958q0-.625-.521-1.146-.521-.521-1.146-.521h-3.875q-.708 0-1.187.479-.48.479-.48 1.188v7q0 .458.313.77.312.313.771.313Zm1.125-7.542h2.791v2.834h-2.791ZM8 8v24Z"/></svg>

<svg xmlns="http://www.w3.org/2000/svg" height="40" width="40"><path d="M24.042 16.917V11.333H27.042V16.917ZM23.708 19.125H27.583Q28.208 19.125 28.729 18.604Q29.25 18.083 29.25 17.458V10.792Q29.25 10.167 28.729 9.646Q28.208 9.125 27.583 9.125H23.708Q23.083 9.125 22.562 9.646Q22.042 10.167 22.042 10.792V17.458Q22.042 18.083 22.562 18.604Q23.083 19.125 23.708 19.125ZM12.208 19.125H16.708Q17.167 19.125 17.479 18.812Q17.792 18.5 17.792 18Q17.792 17.542 17.479 17.229Q17.167 16.917 16.667 16.917H12.792V14.875H16.125Q16.75 14.875 17.271 14.354Q17.792 13.833 17.792 13.208V10.792Q17.792 10.167 17.271 9.646Q16.75 9.125 16.125 9.125H11.625Q11.167 9.125 10.854 9.438Q10.542 9.75 10.542 10.25Q10.542 10.708 10.854 11.021Q11.167 11.333 11.667 11.333H15.542V13.417H12.208Q11.583 13.417 11.062 13.938Q10.542 14.458 10.542 15.083V17.458Q10.542 18.167 11.021 18.646Q11.5 19.125 12.208 19.125ZM8 35.667Q6.5 35.667 5.417 34.583Q4.333 33.5 4.333 32V8Q4.333 6.5 5.417 5.417Q6.5 4.333 8 4.333H32Q33.5 4.333 34.583 5.417Q35.667 6.5 35.667 8V32Q35.667 33.5 34.583 34.583Q33.5 35.667 32 35.667ZM8 32H32Q32 32 32 32Q32 32 32 32V8Q32 8 32 8Q32 8 32 8H8Q8 8 8 8Q8 8 8 8V32Q8 32 8 32Q8 32 8 32ZM10.917 30.875Q11.417 30.875 11.729 30.562Q12.042 30.25 12.042 29.75V23.333H14.042V27.375Q14.042 27.792 14.354 28.104Q14.667 28.417 15.167 28.417Q15.667 28.417 15.979 28.104Q16.292 27.792 16.292 27.333V23.333H18.5V29.792Q18.5 30.25 18.812 30.562Q19.125 30.875 19.625 30.875Q20.083 30.875 20.396 30.562Q20.708 30.25 20.708 29.75V22.792Q20.708 22.167 20.188 21.646Q19.667 21.125 19.042 21.125H11.458Q10.833 21.125 10.312 21.646Q9.792 22.167 9.792 22.792V29.792Q9.792 30.25 10.104 30.562Q10.417 30.875 10.917 30.875ZM24.042 30.875Q24.542 30.875 24.854 30.562Q25.167 30.25 25.167 29.75V28.417H28.5Q29.125 28.417 29.646 27.896Q30.167 27.375 30.167 26.75V22.792Q30.167 22.167 29.646 21.646Q29.125 21.125 28.5 21.125H24.625Q23.917 21.125 23.438 21.604Q22.958 22.083 22.958 22.792V29.792Q22.958 30.25 23.271 30.562Q23.583 30.875 24.042 30.875ZM25.167 23.333H27.958V26.167H25.167ZM8 8Q8 8 8 8Q8 8 8 8Q8 8 8 8Q8 8 8 8V32Q8 32 8 32Q8 32 8 32Q8 32 8 32Q8 32 8 32Z"/></svg>
